!!!OTL: N&auml;rrchen, sei nicht spröde! (1-36), S. 94
!!!id: K1084
**kern
*clefG2
*k[]
*G:
{8g
=1
8g
4g
8g
8g
8b
=2yy
8ee
=3
4dd
8cc
4.a}
=4
{8b
8dd
8b
8a
8g
8a
=5
4.g}
4.r
=6
{4g
8g
8g
8b
8ee
=7
4dd
8cc
4.a}
=8
{8b
8dd
8b
8a
8g
8a
=9
4.g}
4.r
=10
{4ee
8cc
8cc
8dd
8ee
=11
4.dd
4.b}
=12
{8cc
8b
8a
8b
8a
8g
=13
2dd}
4r
=14
{4g
8g
8g
8b
8ee
=15
4dd
8cc
4.a}
=16
{8b
8dd
8b
8a
8g
8a
=17
4.g}
4.r
=18
{4ee
8cc
8cc
8dd
8ee
=19
4.dd
4.b}
=20
{8cc
8b
8a
8b
8a
8g
=21
2dd}
4r
=22
{4g
8g
8g
8b
8ee
=23
4dd
8cc
4.a}
=24
{8b
8dd
8b
8a
8g
8a
=25
4.g}
4.r
==
*-
!!!minrhy: 8
!!!meters: 6/8 ]  ZZ[12
!!!cut: N&auml;rrchen, sei nicht spröde! (1-36), S. 94
!!!reg: Luxemburg
!!!trd: KINTZELE, Guillaume: An der Ucht, Bd. 1, Luxemburg 1926
!!!rhy1:   X_XXXX  X_XX_.
!!!rhy2: XXXXXX  X_.0_.
!!!key: K1084  08  G 6/8 ]  ZZ[12
!!!mod: SECHSTONSKALA DUR ?]  AMBITUS[6
!!!kad: 212135213521
!!!akz: 1152_321_1152_321_6453_4355_1152_321_6453_4355_1152_321_
!!!fot: 'a__b__a__b__c__d__a__b__c__d__a__b__
!!!for: 'a__b__a__b__c__bv_a__b__c__bv_a__b__
!!!fok: '^a_^d_^a_^d_Sd_Va_^a_^d_Sd_Va_^a_^d_
!! PHRAS[VOLLTAKTIG]
!!!fkt: Ermahnung an die Verg&auml;nglichkeit der Jugend und Schönheit
!!!bem: in der Quelle mit einer 2. Stimme versehen
!! KINTZELE
!! PR[24] 2K[8] 2G[11] 3K[2] 3G[1] 4A[7] 4Ü[0] 5A[3] 6K[2] 6G[1]
!! 7K[0] 7G[0] 8A[0] MEHR[0] SI[36] ABS[95] SR[19] SP[17]
!! ST[28] 2k[6] 2g[12] 3k[13] 3g[3] 4d[3] 4ü[0] 5d[2] 6k[0] 6g[1]
!! 7k[0] 7g[0] 8d[0] mehr[0] si[40] dm[-4] sr[18] sp[22]
!! 1F[8] 2F[83] 3F[9] 4F[0] LF[0] 2P[0] 3P[0] 4P[0] TRI[0] DF[3] AB[106]
!! TF[0] U3K[0] U3[0] U4[0] U4Ü[0] U5[4] U6K[0] U6[4] U7K[0] U7[5]
!! N1[13] N2K[0] N2[19] N3K[0] N3[15] N4[13] N4Ü[2] N5[19] N6K[0] N6[4]
!!!n7k: 0] N7[0] O1[3] O2K[0] O2[0] O3K[0] O3[0] HÖ[0
!!!RNB: symbol: &auml;      = a umlaut  (UTF-8: Å„)
